!!! OTL: Berkowitz523
!!! Chapter: 1
!!! Section: IV
!!! Page: 131
!!! Mode: 
!!! Encoder: DJB
**kern
*staff1
*I"Piano
=1-
*clefG2
*k[b-e-a-]
*E-:
*M8/8
8B-/L
8e-/
8f/
8f#/
8g/
8cc/
8b-/
8g/J
=2
8en/L
8f/
8f/
8g/
8f/
8g/
8b-/
8a-/J
=3
8g/L
8e-/
8cc/
8a-/
8f/
8dd/
8b-/
8g/J
=4
8ee-\L
8cc\
8b-\
8a-\
8g\
8f\J
4e-/
=5
8r
8g\L
8g\
8a-\
8g\
8g\
8cc\
8ee-\J
=6
!!linebreak:original
8dd\L
8g\
8g\J
4a-/
8g\L
8dd\
8ff\J
=7
8ee-\L
8b-\
8cc\
8dd\
8cc\
8g\
8b-\
8a-\J
=8
8r
8cc/L
8b-/
8a-/
8g/
8f/J
4e-/
==
*-
